!!!COM:	Bach, Johann Sebastian
!!!OMV:	Werde munter, mein Gem&uuml;te
!!!OTL:	Werde munter, mein Gem&uuml;te
**kern	**fb	**kern	**kern	**kern	**kern
*part5	*part5	*part4	*part3	*part2	*part1
*staff5	*	*staff4	*staff3	*staff2	*staff1
*I"Continuo	*	*I"Voice	*I"Voice	*I"Voice	*I"Voice
*I'Cont.	*	*I'V	*I'V	*I'V	*I'V
*clefF4	*	*clefF4	*clefGv2	*clefG2	*clefG2
*Trd0c0	*	*	*	*	*
*k[f#c#g#]	*	*k[f#c#g#]	*k[f#c#g#]	*k[f#c#g#]	*k[f#c#g#]
*M4/4	*	*M4/4	*M4/4	*M4/4	*M4/4
=	=	=	=	=	=
4F#	5	4F#	8f#L	8aL	4cc#
.	.	.	8eJ	8g#J	.
8BL	.	8BL	8dL	4f#	4dd
8AJ	.	8AJ	8c#J	.	.
8G#L	6	8G#L	4B	8bL	4ee
8F#J	.	8F#J	.	8aJ	.
4E	6	4E	8c#L	4g#	4ee
.	5	.	8BJ	.	.
=3	=3	=3	=3	=3	=3
8F#L	6	8F#L	8AL	4f#	4dd
8G#J	.	8G#J	8BJ	.	.
4A	5	4A	8c#L	8eL	4cc#
.	6	.	8dJ	8f#J	.
4E	.	4E	4e	4g#	4b
4E;	.	4E;	4e	4g#	4b;
=4	=4	=4	=4	=4	=4
4A	.	4A	4e	8aL	4cc#
.	.	.	.	8g#J	.
4F#	6	4F#	8AL	4a	4dd
.	.	.	8BJ	.	.
4C#	6	4C#	8c#L	8aL	4ee
.	.	.	8dJ	8g#J	.
8BBL	._	8BBL	4e	4a	8ddL
8AAJ	.	8AAJ	.	.	8cc#J
=5	=5	=5	=5	=5	=5
4D	6 5	4D	4f#	8aL	[4b
.	.	.	.	8f#J	.
4E	.	4E	8eL	4g#	8bL]
.	.	.	8dJ	.	8aJ
2AA;	.	2AA;	2c#;	2e;	2a;
=6	=6	=6	=6	=6	=6
4A	8	4A	4e	8aL	4cc#
.	7	.	.	8g#J	.
8BL	5	8BL	8dL	4f#	4dd
8AJ	.	8AJ	8c#J	.	.
8G#L	6	8G#L	4B	8bL	4ee
8F#J	.	8F#J	.	8aJ	.
4E	6	4E	8c#L	4g#	4ee
.	5	.	8BJ	.	.
=7	=7	=7	=7	=7	=7
!!linebreak:original
8F#L	6	8F#L	8AL	4f#	4dd
8G#J	.	8G#J	8BJ	.	.
4A	5	4A	8c#L	8eL	4cc#
.	6	.	8dJ	8f#J	.
4E	.	4E	4e	4g#	4b
4E;	.	4E;	4e;	4g#;	4b;
=8	=8	=8	=8	=8	=8
4A	.	4A	4e	8aL	4cc#
.	.	.	.	8g#J	.
4F#	6	4F#	8AL	4a	4dd
.	.	.	8BJ	.	.
4C#	6	4C#	8c#L	8aL	4ee
.	.	.	8dJ	8g#J	.
8BBL	._	8BBL	4e	4a	8ddL
8AAJ	.	8AAJ	.	.	8cc#J
=9	=9	=9	=9	=9	=9
4D	6 5	4D	4f#	8aL	[4b
.	.	.	.	8f#J	.
4E	.	4E	8eL	4g#	8bL]
.	.	.	8dJ	.	8aJ
2AA;	.	2AA;	2c#;	2e;	2a;
=10	=10	=10	=10	=10	=10
4E	.	4E	4e	4g#	4b
8DL	7 #5\ 3	8DL	4e	4a#X	4cc#
8C#J	.	8C#J	.	.	.
4BB	.	4BB	4f#	8bL	8ddL
.	.	.	.	8a#J	8cc#J
4Gn	.	4Gn	8eL	4b	8ddL
.	.	.	8dJ	.	8eeJ
=11	=11	=11	=11	=11	=11
4E	6 5 n	4E	4gn	4b	4cc#
4F#	#	4F#	8f#L	4a#X	4cc#
.	.	.	8eJ	.	.
2BB;	.	2BB;	2d;	2f#;	2b;
=12	=12	=12	=12	=12	=12
4BB	.	4B	4f#	4b	4dd
4C#	7	4c#	4e	8bL	4ee
.	6	.	.	8anJ	.
4D	.	4d	8dL	4a	4ff#
.	.	.	8c#J	.	.
4Gn	6 5	4Gn	4d	4b	8ee
.	.	.	.	.	16ff#LL
.	.	.	.	.	16ggnJJ
=13	=13	=13	=13	=13	=13
!!pagebreak:original
4A	6 4	4A	8dL	4a	4ff#
.	.	.	8BJ	.	.
4AA	5 3	4AA	4c#	8gnL	8eeL
.	.	.	.	8f#J	8ddJ
2D;	.	2D;	2A;	2f#;	2dd;
=14	=14	=14	=14	=14	=14
4A	.	4A	4A	4e	4cc#
8G#L	7 5	8G#L	8BL	4a	4dd
8F#J	.	8F#J	8c#J	.	.
4G#	6	4G#	4B	4g#	4ee
4C#	7	4c#	4c#	8bL	4ee
.	6	.	.	8aJ	.
=15	=15	=15	=15	=15	=15
4F#	6	4F#	8dL	8aL	4dd
.	.	.	8eJ	8g#J	.
8EL	6 4 2	8EL	4f#	4a	4cc#
8D#XJ	.	8D#XJ	.	.	.
4E	5 4	4E	4g#	8eL	4b
.	.	.	.	8f#J	.
4EE;	3	4E;	4e;	4g#;	4b;
=16	=16	=16	=16	=16	=16
8AAL	.	8AAL	4e	4a	4cc#
8GG#J	.	8GG#J	.	.	.
8AAL	4 7	8AAL	4d	8g#L	4dd
8BBJ	5	8BBJ	.	8f#J	.
8C#L	7	8C#L	8c#L	8eL	4ee
8BBJ	.	8BBJ	8dJ	8g#J	.
8C#L	6	8C#L	8eL	4a	8aL
8DJ	6 5	8DJ	8f#J	.	8bJ
=17	=17	=17	=17	=17	=17
4E	6 4	4E	4e	4a	4cc#
4EE	5 3	4E	8dL	4g#	8bL
.	.	.	8c#J	.	8aJ
4AA	.	4AA	4c#	4e	4a
4AA;	.	4AA;	4c#;	4e;	4a;
=||	=||	=||	=||	=||	=||
*-	*-	*-	*-	*-	*-
!!!system-decoration: s1,s2,s3,s4,s5
